assets/img/canvix-footer-logo.svg

<svg width="200" height="52" viewBox="0 0 200 52" fill="none" xmlns="http://www.w3.org/2000/svg">
<path d="M80.7558 13.9699C79.6688 13.9699 78.6594 14.2416 77.7277 14.7851C76.8219 15.3286 76.0325 16.0921 75.3596 17.0756C74.7125 18.0591 74.2078 19.2496 73.8455 20.6472C73.5091 22.0448 73.3408 23.6106 73.3408 25.3447C73.3408 27.1305 73.5091 28.7222 73.8455 30.1198C74.2078 31.5174 74.7255 32.7079 75.3984 33.6914C76.0713 34.6749 76.8995 35.4254 77.883 35.9431C78.8665 36.4607 79.9794 36.7195 81.2217 36.7195C82.5675 36.7195 83.758 36.396 84.7933 35.749C85.8544 35.076 86.7344 34.1573 87.4332 32.9926C88.132 31.8279 88.6367 30.508 88.9472 29.0328L91.5095 30.0421C91.0954 31.9056 90.4095 33.549 89.4519 34.9725C88.4943 36.396 87.265 37.5089 85.7638 38.3112C84.2886 39.1135 82.5287 39.5147 80.4841 39.5147C78.4912 39.5147 76.6536 39.1782 74.9713 38.5053C73.3149 37.8065 71.8785 36.836 70.6621 35.5937C69.4457 34.3255 68.501 32.8244 67.8281 31.0903C67.1552 29.3563 66.8187 27.4411 66.8187 25.3447C66.8187 23.2483 67.1681 21.3331 67.8669 19.599C68.5657 17.865 69.5233 16.3768 70.7398 15.1345C71.9562 13.8663 73.3538 12.8958 74.9325 12.2229C76.5372 11.5241 78.2453 11.1747 80.057 11.1747C81.8687 11.1747 83.3828 11.4723 84.5992 12.0676C85.8415 12.6629 86.8509 13.4781 87.6273 14.5134C88.4037 15.5486 88.999 16.765 89.4131 18.1626L87.6273 17.8132L88.3261 11.5629H91.0048V20.1037H87.9379C87.5496 18.8614 87.032 17.7874 86.385 16.8815C85.7638 15.9757 84.9874 15.2639 84.0557 14.7463C83.1498 14.2287 82.0499 13.9699 80.7558 13.9699ZM107.271 27.1693L107.233 29.3045C106.223 29.408 105.317 29.5633 104.515 29.7704C103.713 29.9516 103.014 30.1845 102.419 30.4692C101.823 30.728 101.332 31.0386 100.944 31.4009C100.581 31.7374 100.309 32.1256 100.128 32.5656C99.9471 33.0055 99.8565 33.4973 99.8565 34.0408C99.8565 34.6619 99.96 35.1796 100.167 35.5937C100.4 36.0078 100.724 36.3313 101.138 36.5642C101.552 36.7971 102.031 36.9136 102.574 36.9136C103.299 36.9136 103.933 36.7324 104.476 36.3701C105.046 36.0078 105.55 35.5031 105.99 34.8561C106.43 34.1831 106.819 33.4067 107.155 32.5267L107.233 35.0113C106.87 35.9689 106.379 36.7842 105.757 37.4571C105.136 38.1042 104.399 38.6088 103.545 38.9712C102.69 39.3335 101.707 39.5147 100.594 39.5147C99.3518 39.5147 98.2519 39.3206 97.2942 38.9324C96.3366 38.5183 95.5861 37.923 95.0426 37.1465C94.525 36.3442 94.2661 35.3866 94.2661 34.2737C94.2661 33.1867 94.5379 32.255 95.0814 31.4785C95.6249 30.7021 96.4402 30.0421 97.5272 29.4986C98.6401 28.9292 99.9988 28.4634 101.603 28.101C103.234 27.7128 105.123 27.4022 107.271 27.1693ZM106.728 39.1265V35.2055H106.301V24.9176C106.301 24.0636 106.184 23.3906 105.952 22.8989C105.719 22.3813 105.356 22.006 104.865 21.7731C104.399 21.5401 103.816 21.4237 103.118 21.4237C102.082 21.4237 101.215 21.6566 100.516 22.1225C99.8436 22.5624 99.313 23.093 98.9248 23.7142C98.7695 23.4295 98.6918 23.1577 98.6918 22.8989C98.7177 22.6401 98.7954 22.4072 98.9248 22.2001C99.0542 21.9931 99.2353 21.8119 99.4683 21.6566C99.7271 21.5013 100.012 21.3848 100.322 21.3072V25.4611H95.5861V21.346C95.9484 21.0613 96.4919 20.7249 97.2166 20.3367C97.9672 19.9484 98.8859 19.612 99.973 19.3273C101.06 19.0167 102.302 18.8614 103.7 18.8614C104.89 18.8614 105.99 18.9908 107 19.2496C108.009 19.4826 108.889 19.8708 109.64 20.4143C110.416 20.9319 111.011 21.6178 111.425 22.4719C111.865 23.3001 112.085 24.3094 112.085 25.5V35.7101C112.085 36.0207 112.176 36.2666 112.357 36.4478C112.538 36.603 112.797 36.7195 113.134 36.7971C113.496 36.8748 113.91 36.9266 114.376 36.9524L114.492 36.9913V39.1265H106.728ZM116.095 39.1265V37.0301H116.134C116.6 37.0301 117.014 37.0042 117.376 36.9524C117.739 36.8748 118.023 36.7454 118.23 36.5642C118.438 36.383 118.541 36.1242 118.541 35.7878V22.9377C118.541 22.6272 118.463 22.3942 118.308 22.2389C118.179 22.0578 117.959 21.9154 117.648 21.8119C117.338 21.7084 116.936 21.6048 116.445 21.5013L116.095 21.4237V19.2496H124.015V23.4812L124.442 23.6365V36.6807C124.442 36.7583 124.546 36.823 124.753 36.8748C124.985 36.9266 125.27 36.9654 125.607 36.9913C125.943 37.0171 126.254 37.0301 126.538 37.0301H126.616V39.1265H116.095ZM139.932 39.1265H129.372V37.0301H129.411C129.696 37.0301 130.006 37.0301 130.343 37.0301C130.679 37.0042 130.964 36.9654 131.197 36.9136C131.456 36.836 131.585 36.7583 131.585 36.6807V25.4611C131.585 24.6847 131.495 24.0506 131.313 23.5589C131.158 23.0671 130.886 22.7048 130.498 22.4719C130.136 22.2389 129.644 22.1225 129.023 22.1225C128.324 22.1225 127.664 22.3036 127.043 22.666C126.422 23.0024 125.827 23.5071 125.257 24.18C124.714 24.8271 124.196 25.6553 123.704 26.6646L123.588 23.5977C124.183 22.5883 124.83 21.7342 125.529 21.0355C126.254 20.3367 127.069 19.8061 127.975 19.4438C128.907 19.0555 129.916 18.8614 131.003 18.8614C132.297 18.8614 133.423 19.1073 134.38 19.599C135.364 20.0649 136.114 20.7896 136.632 21.7731C137.176 22.7307 137.447 23.9471 137.447 25.4223V35.7878C137.447 36.1242 137.551 36.383 137.758 36.5642C137.965 36.7454 138.25 36.8748 138.612 36.9524C138.974 37.0042 139.388 37.0301 139.854 37.0301H139.932V39.1265ZM157.805 22.1225C157.805 21.9672 157.663 21.8378 157.378 21.7342C157.119 21.6048 156.796 21.5143 156.408 21.4625C156.019 21.3848 155.605 21.346 155.165 21.346H155.088V19.2496H162.658V21.346H162.619C162.283 21.346 161.959 21.3978 161.649 21.5013C161.364 21.579 161.105 21.7342 160.872 21.9672C160.639 22.2001 160.445 22.5366 160.29 22.9765L154.428 39.1265H148.837L142.859 22.6272C142.729 22.2907 142.561 22.0319 142.354 21.8507C142.147 21.6695 141.888 21.5401 141.578 21.4625C141.293 21.3848 140.944 21.346 140.529 21.346H140.491V19.2496H151.322V21.346H151.244C150.804 21.346 150.364 21.359 149.924 21.3848C149.51 21.4107 149.161 21.4496 148.876 21.5013C148.591 21.5272 148.449 21.5919 148.449 21.6954L153.612 36.4089L152.875 36.0207L157.805 22.1225ZM169.334 15.9498C168.35 15.9498 167.548 15.691 166.927 15.1733C166.306 14.6557 165.995 13.944 165.995 13.0381C165.995 12.1323 166.306 11.4206 166.927 10.9029C167.548 10.3853 168.35 10.1265 169.334 10.1265C170.369 10.1265 171.184 10.3853 171.78 10.9029C172.401 11.4206 172.711 12.1323 172.711 13.0381C172.711 13.944 172.401 14.6557 171.78 15.1733C171.184 15.691 170.369 15.9498 169.334 15.9498ZM172.401 19.2496V35.7878C172.401 36.3054 172.634 36.6419 173.099 36.7971C173.565 36.9524 174.148 37.0301 174.846 37.0301H174.885V39.1265H164.054V37.0301H164.093C164.792 37.0301 165.374 36.9524 165.84 36.7971C166.306 36.6419 166.539 36.3054 166.539 35.7878V22.9377C166.539 22.4719 166.37 22.1483 166.034 21.9672C165.697 21.786 165.154 21.6307 164.403 21.5013L164.054 21.4237V19.2496H172.401ZM198.066 39.1265H186.885V37.0689H186.963C187.377 37.0689 187.791 37.056 188.205 37.0301C188.619 36.9783 188.956 36.9266 189.215 36.8748C189.499 36.823 189.642 36.7583 189.642 36.6807L184.517 30.081L184.401 29.9645L178.616 22.3942C178.409 22.1095 178.202 21.9025 177.995 21.7731C177.788 21.6178 177.555 21.5143 177.296 21.4625C177.037 21.3848 176.701 21.346 176.287 21.346V19.2496H187.312V21.346H187.235C186.846 21.346 186.445 21.359 186.031 21.3848C185.643 21.4107 185.319 21.4496 185.061 21.5013C184.802 21.5272 184.672 21.579 184.672 21.6566L189.564 28.0234L189.719 28.1787L195.504 35.7101C195.762 36.0207 195.995 36.2795 196.202 36.4866C196.435 36.6677 196.694 36.8101 196.979 36.9136C197.264 37.0171 197.613 37.0689 198.027 37.0689H198.066V39.1265ZM176.054 39.1265V37.0689H176.093C176.429 37.0689 176.74 37.0171 177.024 36.9136C177.309 36.7842 177.581 36.616 177.84 36.4089C178.124 36.176 178.409 35.9042 178.694 35.5937L184.439 28.6057L186.419 29.8868L181.256 36.2536C181.256 36.4089 181.373 36.5513 181.605 36.6807C181.864 36.8101 182.188 36.9136 182.576 36.9913C182.964 37.043 183.352 37.0689 183.741 37.0689H183.779V39.1265H176.054ZM189.447 29.5375L187.623 28.101L192.476 22.0836C192.476 21.9284 192.359 21.7989 192.126 21.6954C191.893 21.566 191.596 21.4754 191.233 21.4237C190.871 21.3719 190.509 21.346 190.146 21.346H190.03V19.2496H197.6V21.346H197.561C197.199 21.346 196.862 21.3978 196.552 21.5013C196.267 21.6048 195.982 21.786 195.698 22.0448C195.413 22.3036 195.103 22.6401 194.766 23.0542L189.447 29.5375Z" fill="white"/>
<g clip-path="url(#clip0_317_372)">
<path d="M26.2154 21.2485C25.2345 21.2758 24.2764 21.3948 23.3489 21.5961C19.5084 22.6936 16.6904 26.2174 16.6904 30.3835C16.6904 35.4241 20.8157 39.5249 25.8862 39.5249C30.9567 39.5249 35.0819 35.424 35.0819 30.3835C35.082 25.4525 31.1341 21.4215 26.2154 21.2485Z" fill="white"/>
<path d="M44.3825 7.61587C39.442 2.70471 32.8734 0 25.8867 0C18.9 0 12.3315 2.70471 7.39117 7.61587C3.72475 11.2605 1.28228 15.797 0.265625 20.733C3.70329 14.5288 10.3459 10.3155 17.9605 10.3155C28.9861 10.3155 37.974 19.1483 38.1437 30.0694C38.1464 30.1738 38.1477 30.2785 38.1477 30.3835C38.1477 37.1043 32.6474 42.5722 25.8867 42.5722C19.126 42.5722 13.6257 37.1042 13.6257 30.3834C13.6257 29.5576 13.7092 28.7509 13.8673 27.9707C12.1726 30.4376 11.1803 33.4172 11.1803 36.6233C11.1803 44.9807 17.9199 51.8024 26.28 52C33.1194 51.9004 39.5348 49.2077 44.3823 44.3888C49.3227 39.4776 52.0436 32.9479 52.0436 26.0023C52.0436 19.0568 49.3227 12.5271 44.3825 7.61587Z" fill="white"/>
<path d="M30.9168 19.2689C27.7747 15.6541 23.1314 13.3628 17.9598 13.3628C8.51881 13.3628 0.837891 20.9984 0.837891 30.3836C0.837891 32.7592 1.32696 35.0723 2.26862 37.2078C3.53425 39.8391 5.25441 42.2656 7.39049 44.3889C8.86933 45.859 10.495 47.1298 12.2331 48.191C9.65887 45.0262 8.11443 41.0011 8.11443 36.6234C8.11443 27.8423 14.3251 20.477 22.6088 18.6378C23.6524 18.3497 24.7514 18.195 25.886 18.195C26.003 18.195 26.1195 18.1971 26.2356 18.2003C26.3742 18.1973 26.513 18.195 26.6523 18.195V18.2195C28.1635 18.3127 29.6017 18.6783 30.9168 19.2689Z" fill="white"/>
</g>
<defs>
<clipPath id="clip0_317_372">
<rect width="52.3088" height="52" fill="white"/>
</clipPath>
</defs>
</svg>

<svg xmlns="http://www.w3.org/2000/svg" width="200" height="52" fill="none"><path fill="#fff" d="M80.756 13.97a5.906 5.906 0 0 0-3.028.815c-.906.544-1.695 1.307-2.368 2.29-.647.984-1.152 2.175-1.514 3.572-.337 1.398-.505 2.964-.505 4.698 0 1.786.168 3.377.505 4.775.362 1.397.88 2.588 1.552 3.571.673.984 1.502 1.734 2.485 2.252.984.518 2.096.776 3.339.776 1.346 0 2.536-.323 3.571-.97 1.061-.673 1.941-1.592 2.64-2.756.699-1.165 1.204-2.485 1.514-3.96l2.563 1.01c-.415 1.863-1.1 3.506-2.058 4.93a10.15 10.15 0 0 1-3.688 3.338c-1.475.803-3.235 1.204-5.28 1.204-1.993 0-3.83-.337-5.513-1.01a13.07 13.07 0 0 1-4.309-2.911c-1.216-1.269-2.161-2.77-2.834-4.504-.673-1.734-1.01-3.649-1.01-5.745 0-2.097.35-4.012 1.049-5.746.699-1.734 1.656-3.222 2.873-4.465a12.616 12.616 0 0 1 4.193-2.911 12.695 12.695 0 0 1 5.124-1.048c1.812 0 3.326.297 4.542.893 1.242.595 2.252 1.41 3.028 2.445.777 1.036 1.372 2.252 1.786 3.65l-1.786-.35.7-6.25h2.678v8.54h-3.067c-.388-1.242-.906-2.316-1.553-3.222a6.803 6.803 0 0 0-2.33-2.135c-.905-.517-2.005-.776-3.3-.776Zm26.515 13.2-.038 2.134c-1.01.104-1.916.26-2.718.466-.802.182-1.501.415-2.096.7-.596.258-1.087.569-1.475.93a3.273 3.273 0 0 0-.816 1.166c-.18.44-.272.931-.272 1.475 0 .62.104 1.139.311 1.553.233.414.557.737.971.97.414.233.893.35 1.436.35.725 0 1.359-.182 1.902-.544.57-.362 1.074-.867 1.514-1.514.44-.673.829-1.45 1.165-2.33l.078 2.485c-.363.958-.854 1.773-1.476 2.446a6.603 6.603 0 0 1-2.212 1.514c-.855.363-1.838.544-2.951.544-1.242 0-2.342-.194-3.3-.583-.957-.414-1.708-1.009-2.251-1.785-.518-.803-.777-1.76-.777-2.873 0-1.087.272-2.019.815-2.796.544-.776 1.36-1.436 2.446-1.98 1.113-.569 2.472-1.035 4.076-1.397 1.631-.388 3.52-.699 5.668-.932Zm-.543 11.956v-3.92h-.427V24.918c0-.854-.117-1.527-.349-2.02a2.201 2.201 0 0 0-1.087-1.125c-.466-.233-1.049-.35-1.747-.35-1.036 0-1.903.234-2.602.7-.672.44-1.203.97-1.591 1.591-.156-.284-.233-.556-.233-.815a1.6 1.6 0 0 1 .233-.699c.13-.207.31-.388.543-.543.26-.156.544-.272.854-.35v4.154h-4.736v-4.115c.362-.285.906-.621 1.63-1.01.751-.388 1.67-.724 2.757-1.009 1.087-.31 2.329-.466 3.727-.466 1.19 0 2.29.13 3.3.389 1.009.233 1.889.62 2.64 1.164a5.1 5.1 0 0 1 1.785 2.058c.44.828.66 1.837.66 3.028v10.21c0 .31.091.557.272.738.181.155.44.271.777.35.362.077.776.129 1.242.154l.116.04v2.135h-7.764Zm9.367 0V37.03h.039c.466 0 .88-.026 1.242-.078.363-.077.647-.207.854-.388.208-.181.311-.44.311-.776v-12.85c0-.31-.078-.544-.233-.7-.129-.18-.349-.323-.66-.426-.31-.104-.712-.207-1.203-.31l-.35-.078V19.25h7.92v4.231l.427.155v13.045c0 .077.104.142.311.194.232.052.517.09.854.116.336.026.647.04.931.04h.078v2.096h-10.521Zm23.837 0h-10.56V37.03H130.343c.336-.026.621-.065.854-.116.259-.078.388-.156.388-.233V25.46c0-.776-.09-1.41-.272-1.902-.155-.492-.427-.854-.815-1.087-.362-.233-.854-.35-1.475-.35-.699 0-1.359.182-1.98.544-.621.336-1.216.841-1.786 1.514-.543.647-1.061 1.475-1.553 2.485l-.116-3.067c.595-1.01 1.242-1.864 1.941-2.563a7.526 7.526 0 0 1 2.446-1.591 7.793 7.793 0 0 1 3.028-.583c1.294 0 2.42.246 3.377.738.984.466 1.734 1.19 2.252 2.174.544.958.815 2.174.815 3.65v10.365c0 .336.104.595.311.776.207.181.492.31.854.388.362.052.776.078 1.242.078h.078v2.096Zm17.873-17.003c0-.156-.142-.285-.427-.389a3.091 3.091 0 0 0-.97-.272 6.338 6.338 0 0 0-1.243-.116h-.077V19.25h7.57v2.096h-.039c-.336 0-.66.052-.97.155a1.74 1.74 0 0 0-.777.466c-.233.233-.427.57-.582 1.01l-5.862 16.15h-5.591l-5.978-16.5c-.13-.336-.298-.595-.505-.776a1.832 1.832 0 0 0-.776-.389 4.043 4.043 0 0 0-1.049-.116h-.038V19.25h10.831v2.096h-.078c-.44 0-.88.013-1.32.039a9.224 9.224 0 0 0-1.048.116c-.285.026-.427.09-.427.194l5.163 14.714-.737-.388 4.93-13.899Zm11.529-6.173c-.984 0-1.786-.259-2.407-.777-.621-.517-.932-1.229-.932-2.135 0-.906.311-1.617.932-2.135.621-.518 1.423-.777 2.407-.777 1.035 0 1.85.26 2.446.777.621.518.931 1.23.931 2.135 0 .906-.31 1.618-.931 2.135-.596.518-1.411.777-2.446.777Zm3.067 3.3v16.538c0 .517.233.854.698 1.01.466.154 1.049.232 1.747.232h.039v2.096h-10.831V37.03h.039c.699 0 1.281-.078 1.747-.233.466-.155.699-.492.699-1.01v-12.85c0-.465-.169-.789-.505-.97-.337-.181-.88-.336-1.631-.466l-.349-.077V19.25h8.347Zm25.665 19.877h-11.181v-2.058h.078c.414 0 .828-.013 1.242-.039.414-.052.751-.103 1.01-.155.284-.052.427-.117.427-.194l-5.125-6.6-.116-.116-5.785-7.57c-.207-.285-.414-.492-.621-.622a1.707 1.707 0 0 0-.699-.31c-.259-.078-.595-.117-1.009-.117V19.25h11.025v2.096h-.077c-.389 0-.79.013-1.204.039a7.673 7.673 0 0 0-.97.116c-.259.026-.389.078-.389.156l4.892 6.366.155.156 5.785 7.531c.258.31.491.57.698.777.233.18.492.323.777.427.285.103.634.155 1.048.155h.039v2.057Zm-22.012 0v-2.058h.039c.336 0 .647-.052.931-.155.285-.13.557-.298.816-.505a8.38 8.38 0 0 0 .854-.815l5.745-6.988 1.98 1.28-5.163 6.368c0 .155.117.297.349.427.259.13.583.233.971.31.388.052.776.078 1.165.078h.038v2.057h-7.725Zm13.393-9.59-1.824-1.436 4.853-6.017c0-.156-.117-.285-.35-.389-.233-.129-.53-.22-.893-.271a7.66 7.66 0 0 0-1.087-.078h-.116V19.25h7.57v2.096h-.039a3.17 3.17 0 0 0-1.009.155c-.285.104-.57.285-.854.544a9.32 9.32 0 0 0-.932 1.01l-5.319 6.483Z"/><g fill="#fff" clip-path="url(#a)"><path d="M26.215 21.248c-.98.028-1.939.147-2.866.348-3.84 1.098-6.659 4.621-6.659 8.788 0 5.04 4.126 9.14 9.196 9.14 5.07 0 9.196-4.1 9.196-9.14 0-4.931-3.948-8.962-8.867-9.136Z"/><path d="M44.383 7.616C39.441 2.705 32.873 0 25.887 0 18.9 0 12.33 2.705 7.39 7.616 3.725 11.26 1.282 15.797.266 20.733c3.437-6.204 10.08-10.418 17.694-10.418 11.026 0 20.014 8.833 20.184 19.754.002.105.004.21.004.315 0 6.72-5.5 12.188-12.261 12.188-6.761 0-12.261-5.468-12.261-12.189 0-.825.083-1.632.241-2.412a15.23 15.23 0 0 0-2.687 8.652c0 8.358 6.74 15.18 15.1 15.377 6.84-.1 13.255-2.792 18.102-7.611 4.94-4.911 7.662-11.441 7.662-18.387 0-6.945-2.721-13.475-7.661-18.386Z"/><path d="M30.917 19.269a17.131 17.131 0 0 0-12.957-5.906c-9.441 0-17.122 7.635-17.122 17.02 0 2.376.489 4.69 1.43 6.825a26.026 26.026 0 0 0 5.122 7.18 26.32 26.32 0 0 0 4.843 3.803 18.273 18.273 0 0 1-4.119-11.568c0-8.78 6.211-16.146 14.495-17.985a12.3 12.3 0 0 1 3.627-.438c.138-.003.277-.005.416-.005v.024c1.511.094 2.95.46 4.265 1.05Z"/></g><defs><clipPath id="a"><path fill="#fff" d="M0 0h52.309v52H0z"/></clipPath></defs></svg>
